X: 1359
T: Dr. Taylor
R: reel
O: McFadden
B: O'Neill's 1850 #1359
Z: Trish O'Neil
M: C|
L: 1/8
K: G
|: G2FG EGDF | G2Bd cBAF |[1 G2FG EGDc | (3(Bcd) gB cBAF :|[2 GFGA (3(Bcd) ef | gdcA BGHG2 |] gdBd edBd |
| cABG AGEG | T(gf)gd edBd | dedc BG Gz || (3(gfe) fd edBd | (3(cBA) BG AGEG | (3(DEF) GA (3(Bcd) ef | (3(gab) af ged"_d.C."B |]
